X:528
T:
S:Efter Lars Tomassons föresjungning (fr. Hägvalls i Linde).
R:vals
O:Gotland, Linde
M:3/4
L:1/8
K:F
C2|LF2 (AF)(Ac)|(cf)(Ac)(FA)|LG2 L[CE]2 L[CE]2|(cdcBAG)|
LF2 (AF)(Ac)|(cf)(Ac)(FA)|(GB)(cB)(AG)|F4::fe|
(dB)(df)(ef)|Lc2 LA2 dc|(BG)(Ed)(cB)|LA2 LF2 fe|
(dB)(df)(ef)|Lc2 LA2 dc|(BG)(EC)(DE)|F4:|
K:Bb
|:F2|Ld4 B2|FG F2 D2|GA G2 E2|AB A2 F2|e4 c2|AB A2 F2|
(Ac)(eg)(fe)|d2 BB B2|d4 B2|FG F2 D2|GA G2 E2|AB A2 F2|
A4 B2|c4 d2|(ec)(AF)(EC)|B,4:|

